src/main/resources/icons/GroovyMvcIcons/icons/grails_13_dark.svg

<svg xmlns="http://www.w3.org/2000/svg" width="13" height="13" viewBox="0 0 13 13">
  <path fill="#AFB1B3" fill-rule="evenodd" d="M6.5000126,0.509868531 C3.19174424,0.509868531 0.509751049,3.19147569 0.509751049,6.49990772 C0.509751049,9.80824748 3.19183652,12.4901315 6.5000126,12.4901315 C9.80846552,12.4901315 12.4903664,9.80824748 12.4903664,6.49990772 C12.4903664,3.19147569 9.80846552,0.509868531 6.5000126,0.509868531 Z M4.90668811,7.02878894 C4.81690385,7.06828269 4.70229743,7.11312839 4.65754372,7.13693537 C4.57495697,7.18095061 4.44715513,7.27728583 4.37536463,7.38783142 C4.32221383,7.47004855 4.27275406,7.58179371 4.25669808,7.65506015 C4.24691686,7.70119771 4.24202625,7.7687431 4.24304128,7.8480997 C4.24497907,8.03320358 4.27690646,8.27939359 4.34048442,8.44825706 C4.41282857,8.64000475 4.45223029,8.70385913 4.53564752,8.89809825 C4.57108139,8.98031538 4.60430064,9.05865695 4.62035661,9.09685885 C4.62709274,9.11199197 4.62506267,9.12933969 4.61601966,9.14299641 C4.59387349,9.17686138 4.54413689,9.24071576 4.46173469,9.28500781 C4.31824598,9.36251891 4.01604306,9.39047827 3.86609505,9.3914933 L3.86544912,9.3914933 C3.71577794,9.390386 3.41357502,9.36251891 3.26990176,9.28500781 C3.18749956,9.24071576 3.13794751,9.17686138 3.11580134,9.14299641 C3.10657377,9.12933969 3.10482053,9.11199197 3.11127983,9.09685885 C3.12752035,9.05865695 3.16083188,8.9802231 3.19617348,8.89809825 C3.27959071,8.70385913 3.31899243,8.64000475 3.39133658,8.44825706 C3.45491454,8.27939359 3.48684193,8.03320358 3.48868744,7.8480997 C3.4896102,7.76883537 3.48490414,7.70119771 3.47484609,7.65506015 C3.45879011,7.58170144 3.40942262,7.46995627 3.35627181,7.38783142 C3.28466587,7.2773781 3.1565872,7.18095061 3.074185,7.13693537 C3.01217573,7.10399316 2.81507484,7.03008079 2.73756325,6.98735741 C2.63882825,6.93273054 2.51010365,6.84783743 2.4237336,6.7801075 C2.32749004,6.70499555 2.13850941,6.51933802 2.06459658,6.42761655 C1.92295338,6.25192473 1.79247554,6.0458744 1.72935896,5.82367592 C1.65083234,5.54814242 1.65378517,5.43021482 1.64345029,5.34126161 C1.64160477,5.32622076 1.65304696,5.31265632 1.66836473,5.31182584 C1.74412307,5.30933442 2.01698232,5.30305971 2.97009801,5.30158331 C2.98892226,5.30130648 3.00571643,5.31302542 3.01245256,5.33055769 C3.28051346,6.04070699 3.97977871,6.62803811 4.9025357,6.94758684 C4.94027646,6.96041308 4.94350611,7.01273307 4.90668811,7.02878894 Z M7.25335141,9.04979865 C7.37063382,9.36122717 7.43467316,9.46448303 7.57022616,9.78024848 C7.62752937,9.91358602 7.68160293,10.041018 7.7079015,10.1024732 C7.71851321,10.1274797 7.71565266,10.15507 7.70088855,10.1779542 C7.6646242,10.2331347 7.58388296,10.3363906 7.45036003,10.4084575 C7.21736389,10.534413 6.72654944,10.5799969 6.48303387,10.5809197 L6.48211112,10.5809197 C6.23859555,10.5799969 5.74796566,10.534413 5.51487724,10.4084575 C5.3813543,10.3363906 5.30098217,10.2331347 5.26471782,10.1779542 C5.24995371,10.15507 5.24709316,10.1274797 5.25770487,10.1024732 C5.28400344,10.041018 5.3377079,9.91358602 5.39501111,9.78024848 C5.53065639,9.46448303 5.59469572,9.36122717 5.71207041,9.04979865 C5.81541919,8.77546473 5.86737041,8.37591348 5.87050778,8.07481977 C5.87179964,7.94683418 5.86414076,7.83656542 5.84799251,7.76145347 C5.82206304,7.6426954 5.74169091,7.4617439 5.65532085,7.32803725 C5.53905347,7.1480085 5.33106405,6.9922481 5.19735656,6.92091944 C5.09622239,6.86703077 4.7764871,6.74716539 4.65053077,6.67758996 C4.4901556,6.58928267 4.28115114,6.45105454 4.14098436,6.34143171 C3.9847616,6.21925945 3.67785262,5.91816575 3.55807877,5.76886461 C3.32794317,5.4833654 3.11589362,5.14877582 3.01337532,4.78825694 C2.8862194,4.34072263 2.89111001,4.14952859 2.87413129,4.00493348 C2.87127074,3.97992692 2.88981815,3.95805772 2.91454804,3.95713497 C3.06966349,3.95150619 3.73266439,3.93711127 6.4829416,3.93987952 C9.23294198,3.93711127 9.89594288,3.95150619 10.0509661,3.95713497 C10.0759728,3.95805772 10.0946125,3.97992692 10.0914751,4.00493348 C10.0744964,4.14952859 10.079387,4.3408149 9.95232333,4.78825694 C9.84962048,5.14877582 9.6376632,5.4833654 9.4075276,5.76886461 C9.28766147,5.91807347 8.98093705,6.21916718 8.82471429,6.34143171 C8.68436295,6.45105454 8.47526622,6.58928267 8.31489105,6.67758996 C8.18911927,6.74716539 7.86919943,6.86703077 7.76843436,6.92091944 C7.63454232,6.9922481 7.42673745,7.1480085 7.31010097,7.32803725 C7.22391546,7.4617439 7.14354333,7.6426954 7.11779841,7.76145347 C7.10137333,7.83656542 7.09399128,7.94692646 7.09528314,8.07481977 C7.09795913,8.37591348 7.1500949,8.77546473 7.25335141,9.04979865 Z M10.9353364,6.42752461 C10.8616081,6.51924607 10.6727197,6.70490361 10.5764762,6.78001555 C10.4899216,6.84774549 10.3612892,6.9326386 10.2623697,6.98726547 C10.1848581,7.02998884 9.98784948,7.10390121 9.92602476,7.13684343 C9.84343801,7.18085866 9.71535934,7.27719388 9.64356884,7.38773947 C9.59060259,7.4699566 9.54105054,7.58170177 9.52517912,7.65496821 C9.51493652,7.70110577 9.51059956,7.76865115 9.51115321,7.84800775 C9.513091,8.03311164 9.54520295,8.27930165 9.60868863,8.44816511 C9.68112505,8.6399128 9.7204345,8.70376718 9.80385173,8.8980063 C9.83919332,8.98022343 9.8723203,9.05856501 9.88874537,9.09676691 C9.89520467,9.11190002 9.89345144,9.12924775 9.88422387,9.14290446 C9.86189315,9.17676943 9.81252565,9.24062381 9.73012345,9.28491587 C9.58626563,9.36242697 9.28443182,9.39038633 9.13448381,9.39140135 L9.13393016,9.39140135 C8.98398215,9.39029405 8.68177923,9.36242697 8.53829052,9.28491587 C8.45570377,9.24062381 8.40633627,9.17676943 8.38400555,9.14290446 C8.37477798,9.12924775 8.37302474,9.11190002 8.37948404,9.09676691 C8.39572456,9.05856501 8.42885154,8.98013116 8.46437768,8.8980063 C8.54779492,8.70376718 8.58710436,8.6399128 8.65935624,8.44816511 C8.72293419,8.27930165 8.75504614,8.03311164 8.7570762,7.84800775 C8.75762986,7.76874343 8.75310835,7.70110577 8.74323485,7.65496821 C8.72717888,7.58160949 8.67762683,7.46986433 8.62466057,7.38773947 C8.55296236,7.27728616 8.42497596,7.18085866 8.34238921,7.13684343 C8.29772777,7.11303645 8.18275225,7.06819074 8.0933371,7.02869699 C8.05642682,7.01264112 8.05965647,6.96041341 8.09748951,6.94740261 C9.02043105,6.62785389 9.71951174,6.04052277 9.98748037,5.33037347 C9.99430877,5.3128412 10.0112875,5.30112226 10.0298349,5.30139909 C10.9830429,5.30296776 11.2559021,5.3091502 11.3315682,5.31164162 C11.346886,5.31256437 11.3582359,5.32603654 11.3564826,5.34107739 C11.3464246,5.4300306 11.3491006,5.54786592 11.2706662,5.82349169 C11.2075497,6.04578245 11.0770718,6.25183279 10.9353364,6.42752461 Z"/>
</svg>

<svg xmlns="http://www.w3.org/2000/svg" width="13" height="13" viewBox="0 0 13 13"><rect id="frame" width="13" height="13" fill="none"/><path fill="#AFB1B3" fill-rule="evenodd" d="M6.5.51a5.99 5.99 0 1 0 0 11.98A5.99 5.99 0 0 0 6.5.51zM4.907 7.029c-.09.04-.205.084-.25.108a.842.842 0 0 0-.282.25.944.944 0 0 0-.118.268.94.94 0 0 0-.014.193c.002.185.034.431.097.6.073.192.112.256.196.45l.084.199a.048.048 0 0 1-.004.046.434.434 0 0 1-.154.142c-.144.078-.446.105-.596.106-.15 0-.452-.028-.596-.106a.433.433 0 0 1-.154-.142.048.048 0 0 1-.005-.046l.085-.199c.084-.194.123-.258.195-.45.064-.169.096-.415.098-.6a.925.925 0 0 0-.014-.193.941.941 0 0 0-.119-.267.843.843 0 0 0-.282-.251c-.062-.033-.259-.107-.336-.15a2.66 2.66 0 0 1-.314-.207 3.075 3.075 0 0 1-.36-.352 1.76 1.76 0 0 1-.335-.604c-.078-.276-.075-.394-.086-.483a.026.026 0 0 1 .025-.03c.076-.002.349-.008 1.302-.01.019 0 .036.012.042.03.269.71.968 1.297 1.89 1.617.038.012.042.065.005.08zm2.346 2.02c.118.312.182.415.317.731l.138.322a.08.08 0 0 1-.007.076.71.71 0 0 1-.25.23c-.234.126-.724.172-.968.173-.244-.001-.735-.047-.968-.173a.708.708 0 0 1-.25-.23.08.08 0 0 1-.007-.076l.137-.322c.136-.316.2-.419.317-.73.103-.275.155-.674.159-.975a1.534 1.534 0 0 0-.023-.314 1.53 1.53 0 0 0-.193-.433 1.359 1.359 0 0 0-.458-.407c-.1-.054-.42-.174-.546-.243a4.3 4.3 0 0 1-.51-.337 4.965 4.965 0 0 1-.583-.572c-.23-.286-.442-.62-.545-.98-.127-.448-.122-.64-.139-.784a.043.043 0 0 1 .04-.048c.156-.005.819-.02 3.569-.017 2.75-.003 3.413.012 3.568.017.025.001.044.023.04.048-.017.145-.012.336-.139.783-.102.36-.314.695-.544.98-.12.15-.427.451-.583.573-.14.11-.35.248-.51.337-.126.07-.446.189-.547.243a1.361 1.361 0 0 0-.458.407 1.527 1.527 0 0 0-.192.433 1.515 1.515 0 0 0-.023.314c.003.3.055.7.158.975zm3.682-2.621a3.058 3.058 0 0 1-.359.352 2.663 2.663 0 0 1-.314.207c-.077.043-.274.117-.336.15a.842.842 0 0 0-.282.25.942.942 0 0 0-.119.268.935.935 0 0 0-.014.193c.002.185.034.431.098.6.072.192.111.256.195.45l.085.199a.048.048 0 0 1-.005.046.435.435 0 0 1-.154.142c-.144.077-.446.105-.596.106-.15 0-.452-.029-.596-.106a.434.434 0 0 1-.154-.142.048.048 0 0 1-.005-.046l.085-.199c.084-.194.123-.258.195-.45.064-.169.096-.415.098-.6a.965.965 0 0 0-.014-.193.946.946 0 0 0-.118-.267.842.842 0 0 0-.283-.251c-.044-.024-.16-.069-.249-.108-.037-.016-.033-.069.004-.082.923-.32 1.623-.906 1.89-1.617a.045.045 0 0 1 .043-.029c.953.002 1.226.008 1.302.01.015.002.026.015.024.03-.01.089-.007.207-.085.482a1.759 1.759 0 0 1-.336.605z"/></svg>
